!! 00000] TT[WS
!!!OTL: Da qiuqian
!!!ARE: Asia, China, Shanxi Qixian
!! Ethnic Group: Han
!! WI, 126 (2)
!!!SCT: J0151
!!!YEM: Copyright 1995, estate of Helmut Schaffrath.
**kern
*ICvox
*Ivox
*M2/4
*k[b-e-]
*B-:
{8r
8bb-
8.bb-
16dd
=1
8ff
8gg
4bb-
=2
8.bb-
16ccc
8ddd
16ddd
16ccc
=3
8.ddd
16ccc
8gg
[8bb-
=4
8bb-]}
{8ddd
8bb-
8ddd
=5
8bb-
16ddd
16ccc
4bb-
=6
8.dd
16ff
8gg
8ff
=7
2dd}
=8
{8.ff
16gg
4bb-
=9
8.bb-
16ccc
8ddd
8ddd
=10
8.ddd
16ccc
4bb-
=11
8.ddd
16fff
8aa
8gg}
=12
{8ff
16gg
16ff
4dd
=13
8bb-
8bb-
16gg
16bb-
16gg
16ff
=14
8ddd
16gg
16ff
4dd
=15
8bb-
16bb-
16gg
8bb-
8bb-
=16
8.dd
16ff
4dd}
=17
{8.bb-
16ccc
8ddd
8ddd
=18
8ccc
16ddd
16ccc
4bb-
=19
8ddd
8bb-
4ddd
=20
8ff
16gg
16gg
8ff
16gg
16gg
=21
8ff
8ff
4ff}
==
!!!AGN: Xiaodiao. Qingge
!!!ONB: ESAC (Essen Associative Code) Database: CHINA
!!!AMT: simple duple
!!!AIN: vox
!!!EED: Helmut Schaffrath
!!!EEV: 1.0
*-
!!!ONB: Tied note syntax fixed by Craig Sapp, 2004/05/03/
